!!!COM:	Johannes Ockeghem
!!!CDT:	~1425-1497/02/06
!!!OPR:	Kyrie-Gloria-Credo Sine nomine
!!!OTL:	Credo
!!!AGN:	Mass; Credo
!!!SCT:	Ock1001c
!!!SCA:	Ock1001c
!!!voices:	5
!!!voices-OPR:	5
**kern	**text	**kern	**text	**kern	**text	**kern	**text	**kern	**text
*staff5	*staff5	*staff4	*staff4	*staff3	*staff3	*staff2	*staff2	*staff1	*staff1
*Ivox	*	*Ivox	*	*Ivox	*	*Ivox	*	*Ivox	*
*I"Bassus	*	*I"Vagans	*	*I"Tenor	*	*I"Tenor2	*	*I"Discantus	*
*I'B	*	*I'V	*	*I'T	*	*I'T	*	*I'D	*
*>[A,B]	*>[A,B]	*>[A,B]	*>[A,B]	*>[A,B]	*>[A,B]	*>[A,B]	*>[A,B]	*>[A,B]	*>[A,B]
*>A	*>A	*>A	*>A	*>A	*>A	*>A	*>A	*>A	*>A
*clefF4	*	*clefF4	*	*clefGv2	*	*clefGv2	*	*clefG2	*
*k[]	*	*k[]	*	*k[b-]	*	*k[]	*	*k[]	*
*M2/1	*	*M2/1	*	*M2/1	*	*M2/1	*	*M2/1	*
*met(C|)	*	*met(C|)	*	*met(C|)	*	*met(C|)	*	*met(C|)	*
!!section: Factorem celi
!!!OMD: Factorem celi
=1-	=1-	=1-	=1-	=1-	=1-	=1-	=1-	=1-	=1-
0r	.	0G	fac-	0G	fac-	0G	fac-	0r	.
=2	=2	=2	=2	=2	=2	=2	=2	=2	=2
0r	.	1.E	-to-	1G	-to-	1.B	-to-	0r	.
.	.	.	.	1G	-rem	.	.	.	.
.	.	2C/	.	.	.	2c\	.	.	.
=3	=3	=3	=3	=3	=3	=3	=3	=3	=3
0r	.	1BB	-rem	1G	cae-	1d	-rem	0r	.
.	.	[1C	cae-	1G	-li	[1e	cae-	.	.
=4	=4	=4	=4	=4	=4	=4	=4	=4	=4
0r	.	1C]	.	1A	et	1e]	.	0r	.
.	.	1D	-li	1A	ter-	2d\	.	.	.
.	.	.	.	.	.	2c\	.	.	.
=5	=5	=5	=5	=5	=5	=5	=5	=5	=5
0r	.	1.E	et	1G	-rae,	[0B	-li	1.g	et
.	.	.	.	2G/	vi-	.	.	.	.
.	.	4D\	.	2G/	-si-	.	.	2e/	.
.	.	4C/	.	.	.	.	.	.	.
=6	=6	=6	=6	=6	=6	=6	=6	=6	=6
0r	.	1BB	ter-	2G/	-bi-	1B]	.	1d	.
.	.	.	.	2G/	-li-	.	.	.	.
.	.	1AA	-rae,	1A	-um	1c	et	1c	in-
=7	=7	=7	=7	=7	=7	=7	=7	=7	=7
0r	.	1r	.	2G/	om-	2B\	ter-	1d	-vi-
.	.	.	.	2F/	-ni-	2A/	.	.	.
.	.	1C	Je-	1E	-um	1G	-rae,	1e	-si-
=8	=8	=8	=8	=8	=8	=8	=8	=8	=8
0r	.	1D	-sum	1A	et	1r	.	1f	-bi-
.	.	1C	Chri-	2A/	in-	1c	om-	1e	.
.	.	.	.	2A/	-vi-	.	.	.	.
=9	=9	=9	=9	=9	=9	=9	=9	=9	=9
0r	.	0F	-stum,	2A/	-si-	0d	-ni-	0f	-li-
.	.	.	.	1A	-bi-	.	.	.	.
.	.	.	.	2A/	-li-	.	.	.	.
=10	=10	=10	=10	=10	=10	=10	=10	=10	=10
0r	.	0C	.	1G	-um.	0c	-um	0e	-um.
.	.	.	.	2G/	Et	.	.	.	.
.	.	.	.	2G/	in	.	.	.	.
=11	=11	=11	=11	=11	=11	=11	=11	=11	=11
0GG	Et	1r	.	2G/	u-	0B	et	0d	.
.	.	.	.	2G/	-num	.	.	.	.
.	.	[1D	u-	2G/	Do-	.	.	.	.
.	.	.	.	2G/	-mi-	.	.	.	.
=12	=12	=12	=12	=12	=12	=12	=12	=12	=12
[0BB-i	.	1D]	.	1G	-num,	1.G	in-	1r	.
.	.	1GG	-ni-	2G/	Je-	.	.	1d	Je-
.	.	.	.	2G/	-sum	2A/	-vi-	.	.
=13	=13	=13	=13	=13	=13	=13	=13	=13	=13
1BB-]	.	1D	-ge-	1G	Chri-	1B	-si-	1g	-sum
1AA	in	1C	.	1A	-stum,	[1c	-bi-	1f	Chri-
=14	=14	=14	=14	=14	=14	=14	=14	=14	=14
1.FF	u-	1.F	.	2A/	Fi-	0c_	.	1.a	.
.	.	.	.	2A/	-li-	.	.	.	.
.	.	.	.	2A/	-um	.	.	.	.
2GG/	-num	2E\	.	2A/	De-	.	.	2g/	.
=15	=15	=15	=15	=15	=15	=15	=15	=15	=15
1AA	Do-	1F	.	2A/	-i	1c]	.	1f	-stum,
.	.	.	.	2A/	u-	.	.	.	.
1BB	-mi-	1D	.	2A/	-ni-	1d	-li-	1f	an-
.	.	.	.	[2A/	-ge-	.	.	.	.
=16	=16	=16	=16	=16	=16	=16	=16	=16	=16
[0C	-num,	1C	-ni-	2A/]	.	1e	-um.	0e	-te
.	.	.	.	2G/	-ni-	.	.	.	.
.	.	[1E	-tum.	1G	-tum.	[1c	u-	.	.
=17	=17	=17	=17	=17	=17	=17	=17	=17	=17
1C]	.	1E]	.	2G/	Et	1c]	.	1c	om-
.	.	.	.	2G/	ex	.	.	.	.
1GG	Je-	1D	.	1G	Pa-	1B	-ni-	1d	-ni-
=18	=18	=18	=18	=18	=18	=18	=18	=18	=18
0C	.	1r	.	1E	-tre	0c	-ge-	0e	-a
.	.	[1C	na-	1G	na-	.	.	.	.
=19	=19	=19	=19	=19	=19	=19	=19	=19	=19
0FF	-sum	1C]	.	1A	-tum,	[0c	-ni-	1.f	sae-
.	.	[1F	.	2A/	an-	.	.	.	.
.	.	.	.	2A/	-te	.	.	2d/	.
=20	=20	=20	=20	=20	=20	=20	=20	=20	=20
1.AA	Chri-	2F\]	.	2A/	om-	0c_	.	1c	.
.	.	2E\	.	2A/	-ni-	.	.	.	.
.	.	1C	-tum,	2A/	-a	.	.	[1e	.
2BB/	.	.	.	[2A/	sae-	.	.	.	.
=21	=21	=21	=21	=21	=21	=21	=21	=21	=21
0C	.	0E	an-	2A/]	.	0c]	.	1e]	.
.	.	.	.	2G/	-cu-	.	.	.	.
.	.	.	.	1G	-la.	.	.	1c	-cu-
=22	=22	=22	=22	=22	=22	=22	=22	=22	=22
0GG	.	0D	-te	2G/	De-	0d	-tum.	0B	-la.
.	.	.	.	2G/	-um	.	.	.	.
.	.	.	.	2G/	de	.	.	.	.
.	.	.	.	2G/	De-	.	.	.	.
=23	=23	=23	=23	=23	=23	=23	=23	=23	=23
1C	.	1E	om-	2G/	-o,	0r	.	1c	De-
.	.	.	.	2G/	lu-	.	.	.	.
1BB	.	1D	-ni-	2G/	-men	.	.	1d	.
.	.	.	.	2G/	de	.	.	.	.
=24	=24	=24	=24	=24	=24	=24	=24	=24	=24
[0GG	.	1.BB	-a	2G/	lu-	0r	.	1e	-um
.	.	.	.	2G/	-mi-	.	.	.	.
.	.	.	.	1G	-ne,	.	.	1d	de
.	.	2C/	.	.	.	.	.	.	.
=25	=25	=25	=25	=25	=25	=25	=25	=25	=25
0GG]	.	1D	.	2G/	De-	1d	De-	1.g	De-
.	.	.	.	2G/	-um	.	.	.	.
.	.	2r	.	1G	ve-	[1B-i	-um	.	.
.	.	[2D\	sae-	.	.	.	.	2f/	.
=26	=26	=26	=26	=26	=26	=26	=26	=26	=26
1GG	-stum,	2D\]	.	1G	-rum	2B-iy\]	.	0d	-o,
.	.	2E\	.	.	.	2G/	de	.	.
1D	.	2F\	.	1A	de	2F/	De-	.	.
.	.	[2D\	.	.	.	[2A/	.	.	.
=27	=27	=27	=27	=27	=27	=27	=27	=27	=27
0r	.	2D\]	.	2F/	De-	2A/]	.	0r	.
.	.	2E\	.	2G/	-o	1G	.	.	.
.	.	1D	.	1A	ve-	.	.	.	.
.	.	.	.	.	.	2F/	.	.	.
=28	=28	=28	=28	=28	=28	=28	=28	=28	=28
1r	.	1G	-cu-	1G	-ro.	1B-i	-o,	1d	con-
1C	con-	1G	-la.	2G/	Ge-	1c	lu-	1e	-sub-
.	.	.	.	2G/	-ni-	.	.	.	.
=29	=29	=29	=29	=29	=29	=29	=29	=29	=29
1BB	.	0r	.	2G/	-tum	1.d	-men	2d/	-stan-
.	.	.	.	2G/	non	.	.	1g	.
1GG	-sub-	.	.	2G/	fac-	.	.	.	.
.	.	.	.	2G/	-tum,	2Bni\	de	2f/	-ti-
=30	=30	=30	=30	=30	=30	=30	=30	=30	=30
1C	-stan-	0r	.	2G/	con-	1c	lu-	2e/	-a-
.	.	.	.	2G/	-sub-	.	.	2d/	-lem
1D	-ti-	.	.	2G/	-stan-	1B	-mi-	[1d	Pa-
.	.	.	.	2G/	-ti-	.	.	.	.
=31	=31	=31	=31	=31	=31	=31	=31	=31	=31
0E	-a-	0C	Qui	2G/	-a-	0G	-ne,	1d]	.
.	.	.	.	2G/	-lem	.	.	.	.
.	.	.	.	1G	Pa-	.	.	1c#i	.
=32	=32	=32	=32	=32	=32	=32	=32	=32	=32
0D	-lem	0F	.	1A	-tri,	0r	.	0d	-tri,
.	.	.	.	2A/	per	.	.	.	.
.	.	.	.	2A/	quem	.	.	.	.
=33	=33	=33	=33	=33	=33	=33	=33	=33	=33
1C	pro-	1E	pro-	2A/	om-	0r	.	0r	.
.	.	.	.	2A/	-ni-	.	.	.	.
[1D	-pter	[1F	-pter	2A/	-a	.	.	.	.
.	.	.	.	[2A/	fac-	.	.	.	.
=34	=34	=34	=34	=34	=34	=34	=34	=34	=34
1D]	.	1F]	.	2A/]	.	1A	Qui	0d	et
.	.	.	.	2F/	-ta	.	.	.	.
1BB	nos	1D	nos	1G	sunt.	1B	pro-	.	.
=35	=35	=35	=35	=35	=35	=35	=35	=35	=35
0C	ho-	1C	ho-	2G/	Qui	1.G	-pter	1e	pro-
.	.	.	.	2G/	pro-	.	.	.	.
.	.	1E	-mi-	2G/	-pter	.	.	1c	-pter
.	.	.	.	2G/	nos	2A/	nos	.	.
=36	=36	=36	=36	=36	=36	=36	=36	=36	=36
1BB	-mi-	0D	-nes,	2G/	ho-	[0B	ho-	1d	no-
.	.	.	.	2G/	-mi-	.	.	.	.
[1GG	-nes,	.	.	2G/	-nes,	.	.	[1g	.
.	.	.	.	2G/	et	.	.	.	.
=37	=37	=37	=37	=37	=37	=37	=37	=37	=37
1GG]	.	0r	.	2G/	pro-	1B]	.	1g]	.
.	.	.	.	2G/	-pter	.	.	.	.
1C	de-	.	.	1G	no-	1c	-mi-	1e	-stram
=38	=38	=38	=38	=38	=38	=38	=38	=38	=38
0BB	.	0D	de-	2G/	-stram	0d	-nes,	0d	sa-
.	.	.	.	2G/	sa-	.	.	.	.
.	.	.	.	1G	-lu-	.	.	.	.
=39	=39	=39	=39	=39	=39	=39	=39	=39	=39
1AA	-scen-	1E	-scen-	1A	-tem	0r	.	1c	-lu-
1D	.	1F	.	2A/	de-	.	.	1d	-tem
.	.	.	.	2A/	-scen-	.	.	.	.
=40	=40	=40	=40	=40	=40	=40	=40	=40	=40
2C/	-dit	2E\	-dit	2A/	-dit	0r	.	0r	.
1FF	de-	2F\	.	1A	de-	.	.	.	.
.	.	2D\	de-	.	.	.	.	.	.
2GG/	.	[2D\	-cae-	[2G/	-cae-	.	.	.	.
=41	=41	=41	=41	=41	=41	=41	=41	=41	=41
1AA	-cae-	2D\]	.	2G/]	.	0r	.	0r	.
.	.	2C/	.	2F#i/	.	.	.	.	.
1GG	-lis.	1D	.	2G/	-lis.	.	.	.	.
.	.	.	.	2G/	Et	.	.	.	.
=42	=42	=42	=42	=42	=42	=42	=42	=42	=42
1.C	.	0E	-lis.	2G/	in-	0c	ex	0r	.
.	.	.	.	2G/	-car-	.	.	.	.
.	.	.	.	2G/	-na-	.	.	.	.
2BB/	.	.	.	2G/	-tus	.	.	.	.
=43	=43	=43	=43	=43	=43	=43	=43	=43	=43
[0GG	.	0D	.	2G/	est	[0B	Ma-	1.g	de
.	.	.	.	2G/	de	.	.	.	.
.	.	.	.	1G	Spi-	.	.	.	.
.	.	.	.	.	.	.	.	4f/	Spi-
.	.	.	.	.	.	.	.	4e/	.
=44	=44	=44	=44	=44	=44	=44	=44	=44	=44
0GG]	.	0r	.	2G/	-ri-	0B]	.	1d	-ri-
.	.	.	.	2G/	-tu	.	.	.	.
.	.	.	.	1G	sanc-	.	.	1e	-tu
=45	=45	=45	=45	=45	=45	=45	=45	=45	=45
1r	.	0r	.	1A	-to,	0A	-ri-	0f	sanc-
1D	de	.	.	2A/	ex	.	.	.	.
.	.	.	.	2A/	Ma-	.	.	.	.
=46	=46	=46	=46	=46	=46	=46	=46	=46	=46
1C	Spi-	0r	.	2A/	-ri-	1c	-a	0e	-to,
.	.	.	.	2A/	-a	.	.	.	.
1AA	-ri-	.	.	2A/	Vir-	1c	Vir-	.	.
.	.	.	.	2A/	-gi-	.	.	.	.
=47	=47	=47	=47	=47	=47	=47	=47	=47	=47
2BB/	-tu	0r	.	2G/	-ne,	2d\	.	0r	.
1C	sanc-	.	.	2G/	et	2e\	.	.	.
.	.	.	.	2A/	ho-	2c\	-gi-	.	.
2GG/	.	.	.	[2B-i\	-mo	[2d\	-ne,	.	.
=48	=48	=48	=48	=48	=48	=48	=48	=48	=48
2C/	.	0r	.	2B-\]	.	2d\]	.	1e	et
2E\	.	.	.	1G	fac-	1c	.	.	.
1D	-to,	.	.	.	.	.	.	1f	.
.	.	.	.	2F/	-tus	2B\	et	.	.
=49	=49	=49	=49	=49	=49	=49	=49	=49	=49
1C	ho-	1C	ho-	1G	est.	1c	ho-	1e	ho-
1GG	-mo	1D	-mo	2G/	Cru-	1B	-mo	1d	-mo
.	.	.	.	2G/	-ci-	.	.	.	.
=50	=50	=50	=50	=50	=50	=50	=50	=50	=50
1C	fac-	1E	fac-	2G/	-fi-	1c	fac-	1c	fac-
.	.	.	.	2G/	-xus	.	.	.	.
1BB	-tus	1D	-tus	2G/	et-	1G	-tus	1d	-tus
.	.	.	.	2G/	-i-	.	.	.	.
=51	=51	=51	=51	=51	=51	=51	=51	=51	=51
1C	est.	0C	est.	2G/	-am	0c	est.	1e	est.
.	.	.	.	2G/	pro	.	.	.	.
1E	Pi-	.	.	1G	no-	.	.	1g	.
=52	=52	=52	=52	=52	=52	=52	=52	=52	=52
[0D	-la-	1r	.	1A	-bis,	0d	.	1.f	Et
.	.	[1F	et	2A/	sub	.	.	.	.
.	.	.	.	2A/	Pon-	.	.	2g/	.
=53	=53	=53	=53	=53	=53	=53	=53	=53	=53
1D]	.	1F]	.	2A/	-ti-	0r	.	1.a	re-
.	.	.	.	1A	-o	.	.	.	.
1C	-to	1E	se-	.	.	.	.	.	.
.	.	.	.	2A/	Pi-	.	.	2b\	-sur-
=54	=54	=54	=54	=54	=54	=54	=54	=54	=54
1AA	pas-	1C	-pul-	1A	-la-	0r	.	1cc	-re-
1BB	.	1D	.	1G	-to	.	.	1b	.
=55	=55	=55	=55	=55	=55	=55	=55	=55	=55
0C	-sus	0E	.	1G	pas-	0r	.	0g	-xit
.	.	.	.	2G/	-sus	.	.	.	.
.	.	.	.	[2G/	et	.	.	.	.
=56	=56	=56	=56	=56	=56	=56	=56	=56	=56
1BB	et	1.D	.	2G/]	.	0r	.	0r	.
.	.	.	.	2F/	.	.	.	.	.
2GG/	se-	.	.	2G/	se-	.	.	.	.
[2C/	-pul-	[2E\	.	[2A/	-pul-	.	.	.	.
=57	=57	=57	=57	=57	=57	=57	=57	=57	=57
4C/]	.	4E\]	.	2A/]	.	0r	.	0r	.
4BB/	.	4D\	.	.	.	.	.	.	.
2GG/	.	1D	.	1G	.	.	.	.	.
1AA	-tus	.	.	.	.	.	.	.	.
.	.	2C/	-tus	2F#i/	-tus	.	.	.	.
=58	=58	=58	=58	=58	=58	=58	=58	=58	=58
0GG	est.	0D	est.	1G	est.	1.B	se-	1.g	se-
.	.	.	.	1G	Et	.	.	.	.
.	.	.	.	.	.	2c\	.	2f/	.
=59	=59	=59	=59	=59	=59	=59	=59	=59	=59
1BB	ter-	0r	.	2G/	re-	1d	-det	1d	-det
.	.	.	.	2G/	-sur-	.	.	.	.
[1C	.	.	.	2G/	-re-	[1e	ad	1c	ad
.	.	.	.	2G/	-xit	.	.	.	.
=60	=60	=60	=60	=60	=60	=60	=60	=60	=60
2C/]	.	0C	se-	2G/	ter-	1e]	.	0e	dex-
2BB/	-ti-	.	.	2G/	-ti-	.	.	.	.
2AA/	-a	.	.	2G/	-a	[1c	dex-	.	.
2GG/	di-	.	.	2G/	di-	.	.	.	.
=61	=61	=61	=61	=61	=61	=61	=61	=61	=61
1FF	-e,	0F	.	1A	-e,	1c]	.	1f	.
1F	se-	.	.	2A/	se-	1A	-te-	1d	.
.	.	.	.	2A/	-cun-	.	.	.	.
=62	=62	=62	=62	=62	=62	=62	=62	=62	=62
1C	-cun-	1E	-det	2A/	-dum	1c	-ram	1e	.
.	.	.	.	2A/	Scrip-	.	.	.	.
1F	.	1D	.	1A	-tu-	1d	.	1f	.
=63	=63	=63	=63	=63	=63	=63	=63	=63	=63
1.E	.	1r	.	2G/	-ras,	0e	.	1.g	.
.	.	.	.	2G/	Et	.	.	.	.
.	.	1C	ad	2G/	a-	.	.	.	.
2C/	.	.	.	2G/	-scen-	.	.	2e/	.
=64	=64	=64	=64	=64	=64	=64	=64	=64	=64
1BB	-dum	1D	dex-	2G/	-dit	1r	.	1d	.
.	.	.	.	2G/	in	.	.	.	.
1C	ad	1E	-te-	2G/	cae-	[1c	Pa-	[1g	.
.	.	.	.	2G/	-lum,	.	.	.	.
=65	=65	=65	=65	=65	=65	=65	=65	=65	=65
1E	dex-	1C	-ram	2G/	se-	1c]	.	2g/]	.
.	.	.	.	2G/	-det	.	.	2e/	-te-
1D	-te-	[1F	.	2A/	ad	1d	.	1f	-ram
.	.	.	.	2A/	dex-	.	.	.	.
=66	=66	=66	=66	=66	=66	=66	=66	=66	=66
1F	-ram	1F]	.	2A/	-te-	0d	.	1.a	Pa-
.	.	.	.	2A/	-ram	.	.	.	.
1F	Pa-	1D	Pa-	1A	Pa-	.	.	.	.
.	.	.	.	.	.	.	.	4g/	.
.	.	.	.	.	.	.	.	4f/	.
=67	=67	=67	=67	=67	=67	=67	=67	=67	=67
[0Cl	-tris.	1.E	.	[0Gl	-tris.	[0cl	-tris.	[0el	-tris.
.	.	2F\	.	.	.	.	.	.	.
=68	=68	=68	=68	=68	=68	=68	=68	=68	=68
0C]	.	0Gl	-tris.	0G]	.	0c]	.	0e]	.
!!LO:LB:i:g=z
=69||	=69||	=69||	=69||	=69||	=69||	=69||	=69||	=69||	=69||
*>B	*>B	*>B	*>B	*>B	*>B	*>B	*>B	*>B	*>B
*clefF4	*	*clefF4	*	*clefGv2	*	*clefGv2	*	*clefG2	*
*k[]	*	*k[]	*	*k[]	*	*k[]	*	*k[]	*
*M2/1	*	*M2/1	*	*M2/1	*	*M2/1	*	*M2/1	*
*met(C|)	*	*met(C|)	*	*met(C|)	*	*met(C|)	*	*met(C|)	*
!!section: Et iterum
!!!OMD: Et iterum
0r	.	0G	Et	1G	Et	1.B	Et	0r	.
.	.	.	.	2G/	i-	.	.	.	.
.	.	.	.	2G/	-te-	2G/	.	.	.
=70	=70	=70	=70	=70	=70	=70	=70	=70	=70
0r	.	0E	i-	2G/	-rum	1B	i-	0r	.
.	.	.	.	2G/	ven-	.	.	.	.
.	.	.	.	2G/	-tu-	1B	-te-	.	.
.	.	.	.	2G/	-rus	.	.	.	.
=71	=71	=71	=71	=71	=71	=71	=71	=71	=71
0r	.	1C	-te-	2G/	est	1c	-rum	0r	.
.	.	.	.	2G/	cum	.	.	.	.
.	.	1E	.	2G/	glo-	1B	vi-	.	.
.	.	.	.	2G/	-ri-	.	.	.	.
=72	=72	=72	=72	=72	=72	=72	=72	=72	=72
0r	.	1C	-rum	1G	-a	1.e	-vos	0r	.
.	.	[1G	ven-	2G/	ju-	.	.	.	.
.	.	.	.	2G/	-di-	2d\	.	.	.
=73	=73	=73	=73	=73	=73	=73	=73	=73	=73
0r	.	2G\]	.	1G	-ca-	1B	.	0r	.
.	.	2E\	.	.	.	.	.	.	.
.	.	1F	.	2A/	-re	2A/	et	.	.
.	.	.	.	2A/	vi-	[2c\	mor-	.	.
=74	=74	=74	=74	=74	=74	=74	=74	=74	=74
0r	.	2D\	-tu-	2A/	-vos	4c\]	.	0r	.
.	.	.	.	.	.	4B\	.	.	.
.	.	2C/	.	2A/	et	4A/	.	.	.
.	.	.	.	.	.	4G/	.	.	.
.	.	[1D	-rus	2A/	mor-	2.F#i/	-tu-	.	.
.	.	.	.	2A/	-tu-	.	.	.	.
.	.	.	.	.	.	4E/	.	.	.
=75	=75	=75	=75	=75	=75	=75	=75	=75	=75
1GG	vi-	1D]	.	1G	-os,	0G	-os,	1g	cu-
[1C	-vos	1E	est	2G/	cu-	.	.	[1e	-jus
.	.	.	.	2G/	-jus	.	.	.	.
=76	=76	=76	=76	=76	=76	=76	=76	=76	=76
2C/]	.	2C/	vi-	2G/	re-	1r	.	2e/]	.
2BB/	et	1D	-vos	2G/	-gni	.	.	1d	re-
1GG	mor-	.	.	2G/	non	1B	Et	.	.
.	.	2E\	.	2G/	e-	.	.	2B/	.
=77	=77	=77	=77	=77	=77	=77	=77	=77	=77
1FF	-tu-	1F	et	2A/	-rit	1c	in	1A	-gni
.	.	.	.	2A/	fi-	.	.	.	.
1GG	-os,	1D	mor-	1G	-nis.	1B	Spi-	1r	.
=78	=78	=78	=78	=78	=78	=78	=78	=78	=78
0r	.	1E	-tu-	2G/	Et	1B	-ri-	0g	Et
.	.	.	.	2G/	in	.	.	.	.
.	.	1C	-os,	2G/	Spi-	1e	-tum	.	.
.	.	.	.	2G/	-ri-	.	.	.	.
=79	=79	=79	=79	=79	=79	=79	=79	=79	=79
0r	.	2r	.	1G	-tum	2d\	sanc-	0g	in
.	.	1C	Qui	.	.	1e	-tum	.	.
.	.	.	.	2G/	sanc-	.	.	.	.
.	.	2D\	.	2G/	-tum	4d\	.	.	.
.	.	.	.	.	.	4c\	.	.	.
=80	=80	=80	=80	=80	=80	=80	=80	=80	=80
0r	.	1E	cum	2G/	Do-	2B\	Do-	1g	Spi-
.	.	.	.	2G/	-mi-	2c\	-mi-	.	.
.	.	1D	Pa-	1A	-num	1d	-num	1f	-ri-
=81	=81	=81	=81	=81	=81	=81	=81	=81	=81
0r	.	2C/	-tre	2A/	et	0r	.	2e/	-tum
.	.	1D	.	2A/	vi-	.	.	1f	sanc-
.	.	.	.	2A/	-vi-	.	.	.	.
.	.	2C/	et	2A/	-fi-	.	.	2e/	-tum
=82	=82	=82	=82	=82	=82	=82	=82	=82	=82
0r	.	2.AA/	Fi-	1A	-can-	0r	.	2c/	Do-
.	.	.	.	.	.	.	.	2d/	.
.	.	4BB/	.	.	.	.	.	.	.
.	.	1C	.	1G	-tem,	.	.	1e	-mi-
=83	=83	=83	=83	=83	=83	=83	=83	=83	=83
1C	Et	2.E\	-li-	2G/	qui	1e	Qui	1c	-num
.	.	.	.	2G/	ex	.	.	.	.
.	.	4F\	.	.	.	.	.	.	.
2BB/	in	1G	.	2G/	Pa-	2d\	cum	1r	.
[2C/	Spi-	.	.	2G/	-tre	[2e\	Pa-	.	.
=84	=84	=84	=84	=84	=84	=84	=84	=84	=84
2C/]	.	1C	-o	2G/	Fi-	2e\]	.	1e	Qui
4BB/	.	.	.	2G/	-li-	4d\	.	.	.
4AA/	.	.	.	.	.	4c\	.	.	.
1BB	.	1r	.	2G/	-o	1d	-tre	2d/	cum
.	.	.	.	2G/	que	.	.	[2g/	Pa-
=85	=85	=85	=85	=85	=85	=85	=85	=85	=85
1C	-ri-	1.C	si-	1A	pro-	1c	con-	2g/]	.
.	.	.	.	.	.	.	.	2e/	.
1FF	-tum	.	.	1A	-ce-	1A	-glo-	1f	.
.	.	2D\	.	.	.	.	.	.	.
=86	=86	=86	=86	=86	=86	=86	=86	=86	=86
1r	.	0E	-mul	2G/	-dit.	1B	-ri-	0g	-tre
.	.	.	.	2G/	Qui	.	.	.	.
1C	ad-	.	.	2G/	cum	1c	-fi-	.	.
.	.	.	.	2G/	Pa-	.	.	.	.
=87	=87	=87	=87	=87	=87	=87	=87	=87	=87
1BB	-o-	1D	ad-	2G/	-tre	1d	-ca-	1r	.
.	.	.	.	2G/	et	.	.	.	.
[1C	-ra-	1C	-o-	2G/	Fi-	1e	.	[1g	qui
.	.	.	.	2G/	-li-	.	.	.	.
=88	=88	=88	=88	=88	=88	=88	=88	=88	=88
1C]	.	1E	-ra-	2A/	-o	1c	-tur	2g/]	.
.	.	.	.	2A/	si-	.	.	2e/	.
1D	.	1F	.	2A/	-mul	1r	.	1d	lo-
.	.	.	.	2A/	ad-	.	.	.	.
=89	=89	=89	=89	=89	=89	=89	=89	=89	=89
1C	.	1E	-tur	2A/	-o-	1c	u-	1e	-cu-
.	.	.	.	2A/	-ra-	.	.	.	.
[1D	.	1D	et	2A/	-tur	[1F	-nam,	[1f	.
.	.	.	.	2A/	et	.	.	.	.
=90	=90	=90	=90	=90	=90	=90	=90	=90	=90
1D]	.	1.F	con-	2A/	con-	1F]	.	2f/]	.
.	.	.	.	2A/	-glo-	.	.	2e/	.
1AA	-tur	.	.	4A/	-ri-	1A	san-	1c	-tus
.	.	.	.	4A/	-fi-	.	.	.	.
.	.	2E\	.	2A/	-ca-	.	.	.	.
=91	=91	=91	=91	=91	=91	=91	=91	=91	=91
1r	.	1E	-glo-	1G	-tur	1B	-ctam,	0e	est
1C	Pro-	1C	-ri-	2G/	qui	1c	.	.	.
.	.	.	.	2G/	lo-	.	.	.	.
=92	=92	=92	=92	=92	=92	=92	=92	=92	=92
1BB	-phe-	1D	-fi-	2G/	-cu-	1r	.	1d	.
.	.	.	.	2G/	-tus	.	.	.	.
[1C	.	[1E	-ca-	2A/	est	1c	Con-	1r	.
.	.	.	.	2A/	per	.	.	.	.
=93	=93	=93	=93	=93	=93	=93	=93	=93	=93
1C]	.	1E]	.	2A/	Pro-	1A	-fi-	1c	Et
.	.	.	.	2A/	-phe-	.	.	.	.
1GG	-tas.	1D	.	2G/	-tas.	1B	-te-	1d	u-
.	.	.	.	2G/	Et	.	.	.	.
=94	=94	=94	=94	=94	=94	=94	=94	=94	=94
0r	.	1C	.	2G/	u-	1.c	-or	1.e	-nam,
.	.	.	.	2G/	-nam,	.	.	.	.
.	.	[1E	.	1G	san-	.	.	.	.
.	.	.	.	.	.	2B\	u-	2f/	.
=95	=95	=95	=95	=95	=95	=95	=95	=95	=95
0r	.	1E]	.	1G	-ctam,	1B	-num	1g	san-
.	.	1AA	-tur	1A	ca-	1c	bap-	1e	-ctam,
=96	=96	=96	=96	=96	=96	=96	=96	=96	=96
0r	.	1BB	ec-	2G/	-tho-	1d	-tis-	1r	.
.	.	.	.	2F/	-li-	.	.	.	.
.	.	1C	.	2E/	-cam	1c	.	1e	ca-
.	.	.	.	2A/	et	.	.	.	.
=97	=97	=97	=97	=97	=97	=97	=97	=97	=97
0r	.	1D	-cle-	2A/	a-	1F	.	1f	-tho-
.	.	.	.	2A/	-po-	.	.	.	.
.	.	1C	-si-	2A/	-sto-	1c	-ma,	1e	-li-
.	.	.	.	2A/	-li-	.	.	.	.
=98	=98	=98	=98	=98	=98	=98	=98	=98	=98
0r	.	0F	-am.	2A/	-cam	1.d	in	0f	-cam
.	.	.	.	2A/	ec-	.	.	.	.
.	.	.	.	1A	-cle-	.	.	.	.
.	.	.	.	.	.	2c\	re-	.	.
=99	=99	=99	=99	=99	=99	=99	=99	=99	=99
1C	Con-	1C	Con-	2G/	-si-	1c	-mis-	1e	Con-
.	.	.	.	1G	-am.	.	.	.	.
1GG	.	1D	.	.	.	1B	-si-	1d	-fi-
.	.	.	.	2G/	Con-	.	.	.	.
=100	=100	=100	=100	=100	=100	=100	=100	=100	=100
0C	-fi-	1C	-fi-	2G/	-fi-	1.c	-o-	1e	-te-
.	.	.	.	2G/	-te-	.	.	.	.
.	.	1E	.	1G	-or	.	.	[1g	-or
.	.	.	.	.	.	4B\	.	.	.
.	.	.	.	.	.	4A/	.	.	.
=101	=101	=101	=101	=101	=101	=101	=101	=101	=101
0BB	-te-	0D	-te-	1G	u-	0G	-nem	2g/]	.
.	.	.	.	.	.	.	.	2f/	.
.	.	.	.	1G	-num	.	.	1d	u-
=102	=102	=102	=102	=102	=102	=102	=102	=102	=102
0AA	-or	0E	-or	0A	bap-	1r	.	0c	-num
.	.	.	.	.	.	1c	Et	.	.
=103	=103	=103	=103	=103	=103	=103	=103	=103	=103
1BB	u-	0r	.	1G	-tis-	1B	ex-	1d	bap-
1C	.	.	.	1E	-ma,	1G	-pec-	[1e	-tis-
=104	=104	=104	=104	=104	=104	=104	=104	=104	=104
1AA	-num	1C	in	2A/	in	1c	.	1e]	.
.	.	.	.	2A/	re-	.	.	.	.
1D	bap-	1F	.	2A/	-mis-	1A	-to	1d	-ma,
.	.	.	.	2A/	-si-	.	.	.	.
=105	=105	=105	=105	=105	=105	=105	=105	=105	=105
2C/	.	2E\	re-	1A	-o-	2r	.	0r	.
1D	-tis-	1F	-mis-	.	.	1d	re-	.	.
.	.	.	.	1A	-nem	.	.	.	.
2C/	.	4E\	-si-	.	.	2e\	-sur-	.	.
.	.	4D\	.	.	.	.	.	.	.
=106	=106	=106	=106	=106	=106	=106	=106	=106	=106
2AA/	.	2C/	-o-	1F	pec-	2f\	-rec-	0r	.
1BB	.	1D	.	.	.	1d	.	.	.
.	.	.	.	2G/	.	.	.	.	.
2C/	.	[2E\	.	[2A/	-ca-	2c\	-ti-	.	.
=107	=107	=107	=107	=107	=107	=107	=107	=107	=107
1GG	-ma,	2E\]	.	2A/]	.	1B	-o-	0r	.
.	.	2G\	.	1G	-to-	.	.	.	.
1r	.	1D	-nem	.	.	1A	-nem	.	.
.	.	.	.	2F#i/	.	.	.	.	.
=108	=108	=108	=108	=108	=108	=108	=108	=108	=108
1GG	mor-	1r	.	1G	-rum.	1B	mor-	1d	re-
[1C	.	[1E	mor-	2G/	Et	[1c	.	1c	-sur-
.	.	.	.	2G/	ex-	.	.	.	.
=109	=109	=109	=109	=109	=109	=109	=109	=109	=109
2C/]	.	1E]	.	1G	-pec-	2c\]	.	1e	-rec-
2BB/	.	.	.	.	.	2d\	.	.	.
1C	-tu-	1C	-tu-	2G/	-to	1e	-tu-	[1g	-ti-
.	.	.	.	2G/	re-	.	.	.	.
=110	=110	=110	=110	=110	=110	=110	=110	=110	=110
0BB	-o-	1D	-o-	2G/	-sur-	0d	-o-	2g/]	.
.	.	.	.	1G	-rec-	.	.	2f/	-o-
.	.	1GG	-rum.	.	.	.	.	[1d	-nem
.	.	.	.	2G/	-ti-	.	.	.	.
=111	=111	=111	=111	=111	=111	=111	=111	=111	=111
1GG	-rum.	1r	.	1G	-o-	1B	-rum.	2d/]	.
.	.	.	.	.	.	.	.	2e/	.
1D	.	2.D\	mor-	2A/	-nem	1A	.	2.f/	mor-
.	.	.	.	[2A/	mor-	.	.	.	.
.	.	4C/	.	.	.	.	.	4e/	.
=112	=112	=112	=112	=112	=112	=112	=112	=112	=112
0r	.	2D\	-tu-	2A/]	.	0r	.	2f/	-tu-
.	.	1C	-o-	2A/	-tu-	.	.	1e	-o-
.	.	.	.	1A	-o-	.	.	.	.
.	.	2AA/	.	.	.	.	.	2c/	.
=113	=113	=113	=113	=113	=113	=113	=113	=113	=113
0r	.	1E	-rum.	1G	-rum.	0r	.	1B	-rum.
.	.	1r	.	1r	.	.	.	1r	.
=114	=114	=114	=114	=114	=114	=114	=114	=114	=114
0GG	Et	[0D	Et	0G	Et	0d	Et	1.B	Et
.	.	.	.	.	.	.	.	2c/	.
=115	=115	=115	=115	=115	=115	=115	=115	=115	=115
1GG	vi-	1D]	.	0G	vi-	1B	vi-	1d	vi-
[1C	-tam	1C	vi-	.	.	[1c	-tam	1e	-tam
=116	=116	=116	=116	=116	=116	=116	=116	=116	=116
1C]	.	1G	.	1E	-tam	2c\]	.	1e	ven-
.	.	.	.	.	.	2A/	.	.	.
1D	.	1F	-tam	1F	ven-	1B	ven-	[1d	-tu-
=117	=117	=117	=117	=117	=117	=117	=117	=117	=117
0AA	.	1r	.	0E	-tu-	[0A	-tu-	2d/]	.
.	.	.	.	.	.	.	.	2B/	.
.	.	1C	ven-	.	.	.	.	1c#i	.
=118	=118	=118	=118	=118	=118	=118	=118	=118	=118
1r	.	0F	-tu-	1D	-ri	1A]	.	1d	-ri
1D	ven-	.	.	1D	sae-	1B	.	2d/	sae-
.	.	.	.	.	.	.	.	2f/	.
=119	=119	=119	=119	=119	=119	=119	=119	=119	=119
1C	-tu-	2E\	-ri	2E/	.	1c	-ri	2g/	.
.	.	2C/	sae-	2F/	.	.	.	2a/	-cu-
2BB/	-ri	2D\	.	2G/	.	2r	.	2b\	-li
[2AA/	sae-	[2E\	.	[2A/	.	[2c\	sae-	[2cc\	A-
=120	=120	=120	=120	=120	=120	=120	=120	=120	=120
2AA/]	.	2E\]	.	2A/]	.	2c\]	.	2cc\]	.
2BB/	.	2D\	.	2G/	.	2.d\	.	1b	.
1C	-cu-	1E	-cu-	1A	.	.	.	.	.
.	.	.	.	.	.	4B\	.	.	.
.	.	.	.	.	.	2c\	-cu-	[2a/	.
=121	=121	=121	=121	=121	=121	=121	=121	=121	=121
1GG	-li	1D	-li	1B-i	.	1d	-li	2a/]	.
.	.	.	.	.	.	.	.	2g/	.
2r	.	[1F	A-	1A	-cu-	2c\	A-	2a/	.
[2D\	A-	.	.	.	.	[2d\	.	[2f/	.
=122	=122	=122	=122	=122	=122	=122	=122	=122	=122
2D\]	.	2F\]	.	1A	-li	2d\]	.	2f/]	.
2E\	.	2G\	.	.	.	2B\	.	4e/	.
.	.	.	.	.	.	.	.	4d/	.
1F	.	2A\	.	1A	A-	2A/	-men.	2c/	-men.
.	.	2F\	.	.	.	[2c\	A-	[2cc\	A-
=123	=123	=123	=123	=123	=123	=123	=123	=123	=123
1E	.	1C	.	1G	.	4c\]	.	2cc\]	.
.	.	.	.	.	.	4d\	.	.	.
.	.	.	.	.	.	2e\	.	1b	.
1D	.	1D	.	1F	.	1f	.	.	.
.	.	.	.	.	.	.	.	[2a/	.
=124	=124	=124	=124	=124	=124	=124	=124	=124	=124
1C	.	1E	-men.	1G	.	1e	.	2a/]	.
.	.	.	.	.	.	.	.	1g	.
1FF	.	2AA/	A-	1A	.	[1c	.	.	.
.	.	[2A\	.	.	.	.	.	[2f/	.
=125	=125	=125	=125	=125	=125	=125	=125	=125	=125
1C	.	2A\]	.	1E	.	1c]	.	2f/]	.
.	.	2G\	.	.	.	.	.	1e	.
1D	.	2F\	.	1F	.	1A	.	.	.
.	.	2D\	.	.	.	.	.	2d/	.
=126	=126	=126	=126	=126	=126	=126	=126	=126	=126
0AA	-men.	[0A	.	[0El	-men.	[0c	.	[0el	-men.
=127	=127	=127	=127	=127	=127	=127	=127	=127	=127
0AA	A-	1A]	.	0E_	.	1c]	.	0e_	.
.	.	1G	.	.	.	1B	.	.	.
=128	=128	=128	=128	=128	=128	=128	=128	=128	=128
0EEl	-men.	0Gl	-men.	0E]	.	0Bl	-men.	0e]	.
==	==	==	==	==	==	==	==	==	==
*-	*-	*-	*-	*-	*-	*-	*-	*-	*-
!!!RDF**kern: l=long note in original notation
!!!RDF**kern: i=editorial accidental
!!!RDF**kern: V=start of tuplet marker
!!!RDF**kern: Z=end of tuplet marker
!!!ENC:	Jesse Rodin 8-17-2012
!!!END:	2012/08/17/
!!!EED:	Jesse Rodin
!!!EEV:	2012/08/17/
!!!ONB:	Translated from MusicXML and edited on 2012/08/17/ by Craig Sapp
!!muse2ps: T^@{OPR}^u^@{ONM}{. }@{OTL}^C^@{COM}^i2I150v85,85,85,85,110Q16c110
